X:1
T:Title
%%score 1 ( 2 3 )
L:1/8
Q:1/4=100
M:6/8
K:C
V:1 treble nm="Grand Piano, Soprano"
V:2 bass nm="Choir Pad, I Cannot Change My Heart"
V:3 bass 
V:1
 C [CE]2 [CE] [CE]2 | C [CF]2 [CF] [CF]2 | [CD] [CE]2 [CE] [CE]2 | C [B,D]2- [B,D]2- [B,D]/ z/ | %4
w: By~Elisha~Albright~Hoffman * * *||||
 C [CE]2 [CE] [CE]2 | C [CF]2 [CF] [CF]2 | [FA] [CG]2 [CD] [CE]2 | [B,D] C2- C2- C/ z/ | %8
w: ||||
 [EG] [Ec]2 [Ge] [Ec]2 | [EG] [Ec]2- [Ec]2- [Ec]/ z/ | [Ec] [EG]2 [CE] [B,D]2 | %11
w: |||
 [CD] [B,D]2- [B,D]2- [B,D]/ z/ | C [CE]2 [CE] [CE]2 | C [CF]2 [CF] [CF]2 | [FA] [CG]2 [CD] [CE]2 | %15
w: ||||
 [B,D] C2- C3- | C3 z3 |] %17
w: ||
V:2
 [C,E,] [C,G,]2 [C,G,] [C,G,]2 | [C,E,] [A,,F,]2 [C,A,] [F,A,]2 | [^F,A,] G,2 [E,G,] [C,G,]2 | %3
 [E,G,] G,2- G,2- G,/ z/ | [C,E,] [C,G,]2 [C,G,] [C,G,]2 | [C,E,] [A,,F,]2 [C,A,] [F,A,]2 | %6
 [F,C] [E,C]2 [F,A,] G,2 | [G,,F,] [C,E,]2- [C,E,]2- [C,E,]/ z/ | z6 | %9
 [C,C] [C,G,]2 [C,G,] [C,G,]2 | z C2 z .G,2 | [D,^F,] [G,,G,]2- [G,,G,]2- [G,,G,]/ z/ | %12
 [C,E,] [C,G,]2 [C,G,] [C,G,]2 | [C,E,] [A,,F,]2 [C,A,] [F,A,]2 | [F,C] [E,C]2 [F,A,] G,2 | %15
 [G,,F,] [C,E,]2- [C,E,]3- | [C,E,]3 z3 |] %17
V:3
 x6 | x6 | x6 | x6 | x6 | x6 | x6 | x6 | x6 | x6 | [C,G,] C,2- [C,G,-]/G,/D,-[D,E,] | x6 | x6 | %13
 x6 | x6 | x6 | x6 |] %17

